X:18002
T:Rakes Of Mallow, The
R:Polka
C:Trad.
O:Ireland
Z:Paul Hardy's Annex Tunebook 2015 (see www.paulhardy.net). Creative Commons cc by-nc-sa licenced.
M:4/4
L:1/4
Q:1/4=200
K:G
z|"G"GB GB|GB "C"c/B/A/G/|"D"FA FA|FA "D7"d/c/B/A/|"G"GB GB|GB dB|"Am"c/B/A/G/ "D7"F/G/A/c/|"G"BG G:|
|:d|"G"gf/e/dc|Bc dB|gf/e/dc|"D"Bd Ad|"G"gf/e/dc|Bc dB|"Am"c/B/A/G/ "D7"F/G/A/c/|"G"BG G:|

